X:244
T: ES WOLLT EIN MAEGDLEIN FRUEH AUFSTEHN
N: E0121C
O: Europa, Mitteleuropa, Deutschland, Kleve; Bayern
R: erzaehlendes Volks - Lied, Schalk -, Schelmen - Lied, Liebe
M: 2/4
L: 1/16
K: G
D2 | G2G2F2A2 | G2FED2
D2 | G2G2A2d2 | B4z2
G2 | B3AB2Bd | c2B2A4 |
A2A2A2d2 | B2A2G2
A2 | B2B2A2A2 | G4z2

@@@ Tune index: 3894
